assets/img/braze_icons/channel-line.svg

<svg fill="none" height="24" viewBox="0 0 24 24" width="24" xmlns="http://www.w3.org/2000/svg"><g fill="#801ed7"><path d="m15.4789 8.44434h3.2333v.85333h-2.2266v1.00663h2.0266v.8067h-2.0266v1.1467h2.3v.8533h-3.3067z"/><path d="m10.6073 8.44434h1.0333l1.9733 2.94666v-2.94666h.96v4.66666h-.8933l-2.12-3.18v3.18h-.9533z"/><path d="m8.69136 8.44434h1.00667v4.66666h-1.00667z"/><path d="m5.19345 8.44434h1.00667v3.81336h2v.8533h-3.00667z"/></g><path d="m21.8659 11.5517c-1.0478 5.0316-6.9492 8.7816-8.9883 9.7866-2.3014 1.1342-2.652.7336-2.1361-.525.7945-1.9383 0-2.1466-1.86112-2.7063-3.16695-.9523-5.95172-2.5259-6.73517-6.3052-.80493-3.88286 1.65658-9.28781 9.39079-9.77427 7.4444-.46823 11.2446 5.13162 10.3299 9.52417z" stroke="#801ed7" stroke-width="2"/></svg>

<svg width="24" height="24" viewBox="0 0 24 24" fill="none" xmlns="http://www.w3.org/2000/svg">
<path d="M15.4789 8.44434H18.7122V9.29767H16.4856V10.3043H18.5122V11.111H16.4856V12.2577H18.7856V13.111H15.4789V8.44434Z" fill="#801ED7"/>
<path d="M10.6073 8.44434H11.6406L13.6139 11.391V8.44434H14.5739V13.111H13.6806L11.5606 9.931V13.111H10.6073V8.44434Z" fill="#801ED7"/>
<path d="M8.69136 8.44434H9.69803V13.111H8.69136V8.44434Z" fill="#801ED7"/>
<path d="M5.19345 8.44434H6.20012V12.2577H8.20012V13.111H5.19345V8.44434Z" fill="#801ED7"/>
<path d="M21.8659 11.5517C20.8181 16.5833 14.9167 20.3333 12.8776 21.3383C10.5762 22.4725 10.2256 22.0719 10.7415 20.8133C11.536 18.875 10.7415 18.6667 8.88038 18.107C5.71343 17.1547 2.92866 15.5811 2.14521 11.8018C1.34028 7.91894 3.80179 2.51399 11.536 2.02753C18.9804 1.5593 22.7806 7.15915 21.8659 11.5517Z" stroke="#801ED7" stroke-width="2"/>
</svg>
